assets/images/landing-5.svg

<svg width="115" height="185" viewBox="0 0 115 185" fill="none" xmlns="http://www.w3.org/2000/svg">
<path d="M72.5762 60.3048C61.3247 60.3048 50.534 64.7744 42.578 72.7304C34.622 80.6865 30.1524 91.4771 30.1524 102.729C30.1524 126.162 72.5762 184.368 72.5762 184.368C72.5762 184.368 115 126.144 115 102.729C115 91.4771 110.53 80.6865 102.574 72.7304C94.6183 64.7744 83.8277 60.3048 72.5762 60.3048ZM72.5762 124.568C68.2583 124.565 64.0381 123.282 60.4492 120.881C56.8602 118.48 54.0637 115.069 52.4131 111.079C50.7625 107.089 50.3319 102.699 51.1757 98.4648C52.0196 94.2301 54.1 90.3407 57.154 87.2882C60.208 84.2357 64.0984 82.1571 68.3336 81.3154C72.5687 80.4736 76.9583 80.9063 80.9475 82.5589C84.9367 84.2115 88.3463 87.0097 90.7455 90.5998C93.1446 94.1899 94.4255 98.4107 94.4262 102.729C94.4253 105.597 93.8593 108.436 92.7606 111.085C91.6619 113.735 90.052 116.141 88.0229 118.168C85.9938 120.195 83.5852 121.802 80.9348 122.898C78.2844 123.993 75.4441 124.556 72.5762 124.554V124.568Z" fill="#FF6E6C"/>
<path d="M54.2847 23.8924C53.0045 24.7852 51.8571 25.8546 50.8766 27.0688C49.6822 28.5526 48.7733 30.2449 48.1956 32.0599C47.7046 33.5231 47.4636 35.0585 47.4826 36.6017L42.2064 32.0955L35.415 33.6178C36.8337 32.2672 38.0586 30.7267 39.0549 29.0403C39.9492 27.5267 40.6669 25.9155 41.1939 24.2382C41.5494 23.1548 41.8001 22.0398 41.9426 20.9085C41.9426 20.9085 61.5395 18.8087 54.2847 23.8924Z" fill="#FFB8B8"/>
<path d="M26.8482 183.559C26.6373 183.835 26.3847 184.075 26.0996 184.272L15.7325 184.515L8.78066 179.217L7.99992 180.875C6.63808 180.903 0 177.239 0 177.239L0.773615 175.31C0.773615 175.196 0.798576 175.082 0.812836 174.953C1.4082 170.797 4.98391 168.64 4.98391 168.64L6.33506 168.062L14.5738 170.055L17.1442 174.907C19.5363 179.969 22.0889 180.422 23.4222 180.222C24.3422 180.074 25.2844 180.275 26.0639 180.786C27.6396 181.873 27.3437 182.903 26.8482 183.559Z" fill="#343344"/>
<path d="M98.3163 178.483C98.6407 180.661 88.8797 183.62 88.8797 183.62L78.7693 183.31L78.7978 184.401L70.8763 184.315L70.8264 182.13C70.8264 182.091 70.8014 182.051 70.7907 182.012C69.682 178.24 71.4467 173.652 71.4467 173.652L72.231 172.269L80.0955 169.891C81.7649 171.417 83.5308 172.834 85.3824 174.133C88.7121 176.515 91.4429 176.176 94.1595 175.841C96.655 175.531 97.8065 176.18 98.22 177.98C98.2593 178.151 98.2878 178.312 98.3163 178.483Z" fill="#343344"/>
<path d="M51.1938 113.243C50.9335 113.799 50.0743 115.346 48.9407 117.35C45.5468 123.346 39.6716 133.446 39.6716 133.446C38.1422 138.123 29.3045 145.428 29.3045 145.428C29.3045 145.428 22.7876 158.686 18.2529 163.706C13.7182 168.725 16.0034 172.493 16.0034 172.493L4.99103 168.657C6.8698 167.249 9.44731 160.636 9.44731 160.636C13.9998 145.239 25.9783 132.116 25.9783 132.116C25.9783 132.116 30.4952 126.822 31.1868 121.346C31.7038 117.235 33.2617 111.564 34.0103 108.99C34.2751 108.063 34.3953 107.101 34.3668 106.138V105.72C34.3238 104.27 33.9584 102.848 33.2973 101.557C32.0709 99.2612 31.7552 96.5878 32.4132 94.07C32.631 93.1741 32.9922 92.3194 33.4827 91.5388L36.1743 90.7545L45.6858 87.9738C45.6858 87.9738 46.274 90.0486 47.069 93.0076C48.9264 99.9308 51.921 111.699 51.1938 113.243Z" fill="#094067"/>
<path d="M81.4859 170.96L71.4396 173.652C71.4396 173.652 71.3933 171.745 68.552 166.896C65.7107 162.048 59.0013 143.913 58.0102 136.565C57.0191 129.218 49.9675 119.553 49.9675 119.553C49.9675 119.553 49.504 118.604 48.9336 117.35C48.406 116.191 47.7928 114.776 47.3722 113.606C46.4952 111.171 42.5915 107.713 42.5915 107.713C35.4436 103.749 34.0354 99.0004 33.9534 96.0343C33.9117 95.0616 34.0408 94.0891 34.3349 93.1609L36.1673 90.7616L39.6325 86.2127L51.3507 73.6531L58.4808 75.1219L58.9121 93.4069C64.3345 100.505 67.6821 116.615 68.798 122.711C69.0499 124.052 69.4307 125.365 69.9352 126.633C71.814 131.464 72.01 139.784 72.01 139.784C72.01 139.784 75.5751 152.533 75.1544 157.456C74.7337 162.379 81.4859 170.96 81.4859 170.96Z" fill="#094067"/>
<path d="M59.4397 69.0935C59.4397 69.0935 64.994 73.0614 67.1972 73.8279C69.4004 74.5943 74.6481 77.4749 74.6481 77.4749C74.6481 77.4749 90.0776 83.3928 84.7015 87.0684C79.3255 90.7439 72.3095 82.4338 72.3095 82.4338C72.3095 82.4338 69.2543 80.3198 66.7873 79.8314C64.3203 79.343 59.069 76.4874 59.069 76.4874L59.4397 69.0935Z" fill="#FFB8B8"/>
<path opacity="0.1" d="M54.2847 23.8924C53.0045 24.7852 51.8571 25.8546 50.8765 27.0688C50.2275 27.2035 49.5677 27.2798 48.9051 27.297C45.9033 27.3683 44.349 24.0885 42.3668 22.1242C42.9907 20.142 41.9319 20.9085 41.9319 20.9085C41.9319 20.9085 61.5395 18.8087 54.2847 23.8924Z" fill="black"/>
<path d="M48.6448 26.7516C54.524 26.7516 59.29 21.9856 59.29 16.1065C59.29 10.2273 54.524 5.4613 48.6448 5.4613C42.7656 5.4613 37.9996 10.2273 37.9996 16.1065C37.9996 21.9856 42.7656 26.7516 48.6448 26.7516Z" fill="#FFB8B8"/>
<path opacity="0.1" d="M47.4862 36.6125L42.2064 32.0956L35.415 33.6178C36.8337 32.2672 38.0586 30.7268 39.0549 29.0404H39.1013C41.379 28.6074 43.7362 29.0587 45.693 30.3024C46.566 30.847 47.4064 31.4421 48.2099 32.0849C47.7169 33.5429 47.4722 35.0734 47.4862 36.6125Z" fill="black"/>
<path opacity="0.1" d="M58.4878 75.1219L58.5841 79.2038C57.7641 78.3803 53.6679 74.4944 54.7838 80.1236C56.0244 86.3767 48.7589 90.9149 48.7589 90.9149C48.1885 91.6945 47.6252 92.3944 47.0691 93.0147C41.308 99.3997 36.2029 97.4532 33.9605 96.0343C33.5273 95.7668 33.1213 95.4575 32.7483 95.111C32.5323 94.808 32.4084 94.4489 32.3918 94.0771C32.6097 93.1813 32.9708 92.3265 33.4614 91.5459L36.153 90.7616L39.6182 86.2127L51.3364 73.6531L58.4878 75.1219Z" fill="black"/>
<path d="M58.7124 78.8045C58.7124 78.8045 53.5325 73.3286 54.7909 79.5781C56.0494 85.8276 48.7625 90.3694 48.7625 90.3694C40.2991 102.034 32.7519 94.5654 32.7519 94.5654C32.7519 94.5654 30.7912 92.4264 35.7893 84.3909C39.6182 78.2412 36.9729 69.0399 35.5219 65.0649C34.8991 63.3467 34.3695 61.5961 33.9355 59.8207L33.579 58.3947L32.7626 55.0578C31.8008 51.1631 31.4995 47.1345 31.8714 43.1399C32.1155 40.4695 32.6731 37.837 33.5327 35.2969C34.0817 33.6712 34.6984 32.2738 35.3615 31.4395C36.3128 30.3012 37.6411 29.5421 39.1048 29.3005C41.3821 28.8651 43.7398 29.3152 45.6965 30.559C47.0997 31.4262 48.4133 32.4305 49.618 33.5572C52.413 36.2202 49.1439 36.5696 49.1439 36.5696C47.0263 39.3503 52.8765 44.4127 52.8765 44.4127C52.8765 44.4127 61.5003 51.3074 59.4326 56.2699C57.3649 61.2325 59.3149 62.826 60.5591 69.35C61.8033 75.874 58.7124 78.8045 58.7124 78.8045Z" fill="#FAFAFA"/>
<path opacity="0.1" d="M47.939 0.595094C46.3062 0.887426 44.8303 1.77868 43.201 2.08171C41.5041 2.39187 39.7644 2.05319 38.0425 2.08171C35.7344 2.10764 33.4792 2.77545 31.5291 4.01039C31.0345 4.2859 30.6176 4.68201 30.3171 5.16189C30.0762 5.72501 29.9548 6.33197 29.9606 6.9444C29.4793 13.3151 24.9374 18.6127 20.1104 22.7981C19.459 23.2854 18.904 23.8899 18.474 24.5806C17.9821 25.5182 17.9963 26.6233 17.9892 27.6822C17.9143 38.2382 14.2317 49.3254 5.8681 55.7603C8.69517 57.6248 12.9982 56.6159 14.6987 53.689C14.0755 56.9145 12.8477 59.9929 11.0802 62.762C14.8092 62.6836 17.5578 59.3859 19.7681 56.3806C20.0797 60.1102 19.2064 63.8429 17.2726 67.0472C22.2637 66.6158 27.3616 65.5392 31.3972 62.5873C33.2475 61.2362 34.9231 59.2683 34.8839 56.9795C34.8625 55.6712 34.2778 54.4448 33.8607 53.2006C32.7734 49.9636 33.0336 45.8816 35.7288 43.7818C36.2366 43.4508 36.7139 43.0749 37.1548 42.6588C37.7715 41.9672 37.989 41.0118 38.1138 40.0956C38.4195 37.8579 38.3071 35.5829 37.7822 33.3862C37.6403 32.9241 37.567 32.4436 37.5647 31.9602C37.6253 30.9513 38.3847 30.1064 39.2474 29.5859C40.1102 29.0654 41.0941 28.7802 42.0103 28.3488C43.5813 27.5776 44.9083 26.3868 45.8445 24.9082C46.7807 23.4296 47.2897 21.7209 47.3151 19.971C47.3151 18.9478 47.1832 17.807 47.8285 17.0192C48.7874 15.8498 50.7839 16.2491 51.9318 15.2652C53.0191 14.3347 52.8979 12.6021 53.6573 11.3864C54.2811 10.3882 55.4398 9.85703 56.2847 9.0549C60.5199 5.12624 51.365 -0.0145258 47.939 0.595094Z" fill="black"/>
<path opacity="0.1" d="M47.0405 40.9227V40.9904L40.3169 50.1062L36.1921 55.6997C36.1921 55.6997 35.0727 56.7692 33.5683 58.377L32.7519 55.0402C31.7901 51.1454 31.4888 47.1168 31.8606 43.1223C33.4185 40.0136 35.0941 37.9281 36.6627 36.5306C37.5449 35.7483 38.6306 35.2318 39.7942 35.041C40.9577 34.8502 42.1515 34.9928 43.2374 35.4524C44.3232 35.9119 45.2567 36.6696 45.9297 37.6377C46.6028 38.6058 46.9879 39.7448 47.0405 40.9227Z" fill="black"/>
<path d="M47.9105 0.0495882C46.2777 0.34192 44.8018 1.23318 43.1725 1.53264C41.4792 1.84636 39.7394 1.50412 38.0139 1.53264C35.7107 1.55772 33.4595 2.2217 31.5113 3.45063C31.0167 3.72614 30.5997 4.12225 30.2992 4.60213C30.0584 5.16525 29.937 5.77221 29.9427 6.38464C29.465 12.7553 24.9196 18.053 20.0926 22.2383C19.442 22.7267 18.8873 23.331 18.4562 24.0208C17.9678 24.9549 17.9785 26.0636 17.9714 27.1224C17.9001 37.6784 14.2138 48.7657 5.85028 55.2005C8.67378 57.065 12.9803 56.0526 14.6773 53.1293C14.0598 56.363 12.8343 59.4503 11.0659 62.2272C14.7949 62.1488 17.5436 58.8476 19.7539 55.8422C20.0621 59.5713 19.1863 63.3026 17.2512 66.5052C22.2423 66.0739 27.3403 64.9972 31.3794 62.0454C33.2261 60.6942 34.9052 58.7263 34.866 56.4376C34.8411 55.1292 34.26 53.9029 33.8429 52.6587C32.752 49.4216 33.0122 45.3397 35.7074 43.2399C36.2154 42.9077 36.6926 42.5307 37.1334 42.1133C37.7501 41.4253 37.9676 40.4698 38.0924 39.5536C38.3951 37.3144 38.2815 35.0386 37.7573 32.8407C37.6159 32.3785 37.5438 31.898 37.5434 31.4147C37.604 30.4058 38.3598 29.5609 39.2225 29.0404C40.0852 28.5199 41.0727 28.2347 41.9854 27.8033C43.556 27.036 44.884 25.8495 45.8227 24.3748C46.7614 22.9001 47.2741 21.1947 47.3044 19.4469C47.3044 18.4237 47.1689 17.2829 47.8178 16.4915C48.7768 15.3257 50.7696 15.725 51.9175 14.7411C53.0084 13.8106 52.8837 12.078 53.643 10.8623C54.2669 9.8641 55.4255 9.33292 56.274 8.53079C60.5057 4.57717 51.3507 -0.560031 47.9105 0.0495882Z" fill="#343344"/>
<path d="M46.4844 40.3913V40.4591L39.7572 49.5856L35.636 55.1826C35.636 55.1826 27.8892 62.4624 25.8393 68.2449C25.0377 70.4028 24.0426 72.4837 22.8661 74.4623C20.8181 77.953 18.965 81.5544 17.3153 85.2501C17.0171 85.976 16.638 86.666 16.1852 87.3071C15.3513 88.4425 14.819 89.7709 14.638 91.168C14.638 91.168 12.3778 99.6848 6.41348 101.46C0.449189 103.236 3.73971 92.2411 5.08729 91.389C5.84307 90.9113 7.60063 89.1181 9.00881 87.6351C10.2847 86.2838 11.2946 84.7043 11.9856 82.9791L13.2868 79.7314C13.2868 79.7314 19.49 64.8439 20.563 63.9989C20.8761 63.7294 21.1413 63.4087 21.3474 63.0506C22.2065 61.6532 23.08 60.2592 23.9783 58.8867C25.1584 57.0828 27.0264 53.4857 29.7038 46.3128C29.8927 45.8066 30.0817 45.3253 30.2777 44.8583C32.1102 40.4662 34.1993 37.7283 36.1173 36.0099C36.999 35.2313 38.0828 34.7177 39.2438 34.5283C40.4048 34.3388 41.5956 34.4813 42.6792 34.9392C43.7627 35.3971 44.6948 36.1519 45.368 37.1165C46.0413 38.0811 46.4282 39.2164 46.4844 40.3913Z" fill="#FFB8B8"/>
<path d="M46.6306 40.3592V40.4305L39.7822 49.7246L30.1174 44.9118C31.9819 40.4377 34.1067 37.6427 36.0639 35.8994C36.9614 35.1035 38.0658 34.5779 39.2494 34.3832C40.4331 34.1885 41.6476 34.3328 42.7528 34.7992C43.8579 35.2656 44.8085 36.0353 45.4947 37.0191C46.1809 38.003 46.5747 39.161 46.6306 40.3592Z" fill="#FAFAFA"/>
<path opacity="0.1" d="M38.1529 33.1365C38.1529 33.1365 45.4148 36.2523 48.9799 36.4413L38.1529 33.1365Z" fill="black"/>
<path opacity="0.1" d="M98.3163 178.483C98.6407 180.661 88.8796 183.62 88.8796 183.62L78.7692 183.31L78.7978 184.401L70.8763 184.315L70.8264 182.13C70.8264 182.09 70.8014 182.051 70.7907 182.012L88.9723 182.39L98.2058 177.994C98.2592 178.151 98.2878 178.311 98.3163 178.483Z" fill="#343344"/>
<path opacity="0.1" d="M26.8482 183.559C26.6373 183.835 26.3847 184.075 26.0996 184.272L15.7325 184.515L8.78066 179.217L7.99992 180.875C6.63808 180.903 0 177.239 0 177.239L0.773615 175.31C0.773615 175.196 0.798576 175.082 0.812836 174.953L8.90187 178.518L15.8465 183.542L26.8482 183.559Z" fill="#343344"/>
<path opacity="0.1" d="M33.9284 93.0361C33.9284 93.0361 37.8285 84.7545 41.8499 82.1913L33.9284 93.0361Z" fill="black"/>
<path opacity="0.1" d="M49.4434 56.0883C49.4434 56.0883 51.7286 60.3449 58.6519 58.7121L49.4434 56.0883Z" fill="black"/>
</svg>

<svg width="115" height="185" fill="none" xmlns="http://www.w3.org/2000/svg"><path d="M72.576 60.305a42.424 42.424 0 00-42.424 42.424c0 23.433 42.424 81.639 42.424 81.639S115 126.144 115 102.729a42.425 42.425 0 00-42.424-42.424zm0 64.263a21.837 21.837 0 1121.85-21.839 21.827 21.827 0 01-6.403 15.439 21.835 21.835 0 01-15.447 6.386v.014z" fill="#FF6E6C"/><path d="M54.285 23.892a16.546 16.546 0 00-3.408 3.177 15.416 15.416 0 00-2.681 4.99 13.744 13.744 0 00-.713 4.543l-5.277-4.506-6.791 1.522a21.229 21.229 0 003.64-4.578 22.983 22.983 0 002.139-4.802c.355-1.083.606-2.198.749-3.33 0 0 19.596-2.1 12.342 2.984z" fill="#FFB8B8"/><path d="M26.848 183.559c-.21.276-.463.516-.748.713l-10.368.243-6.951-5.298L8 180.875c-1.362.028-8-3.636-8-3.636l.774-1.929c0-.114.025-.228.039-.357.595-4.156 4.17-6.313 4.17-6.313l1.352-.578 8.239 1.993 2.57 4.852c2.392 5.062 4.945 5.515 6.278 5.315a3.736 3.736 0 012.642.564c1.576 1.087 1.28 2.117.784 2.773zM98.316 178.483c.325 2.178-9.436 5.137-9.436 5.137l-10.11-.31.028 1.091-7.922-.086-.05-2.185c0-.039-.025-.079-.035-.118-1.109-3.772.656-8.36.656-8.36l.784-1.383 7.865-2.378a52.67 52.67 0 005.286 4.242c3.33 2.382 6.06 2.043 8.777 1.708 2.496-.31 3.647.339 4.061 2.139.04.171.068.332.096.503z" fill="#343344"/><path d="M51.194 113.243c-.26.556-1.12 2.103-2.253 4.107-3.394 5.996-9.27 16.096-9.27 16.096-1.529 4.677-10.366 11.982-10.366 11.982s-6.517 13.258-11.052 18.278c-4.535 5.019-2.25 8.787-2.25 8.787l-11.012-3.836c1.879-1.408 4.456-8.021 4.456-8.021 4.553-15.397 16.531-28.52 16.531-28.52s4.517-5.294 5.209-10.77c.517-4.111 2.075-9.782 2.823-12.356a9.374 9.374 0 00.357-2.852v-.418a9.769 9.769 0 00-1.07-4.163 10.34 10.34 0 01-.884-7.487 8.557 8.557 0 011.07-2.531l2.691-.785 9.512-2.78s.588 2.075 1.383 5.034c1.857 6.923 4.852 18.691 4.125 20.235z" fill="#094067"/><path d="M81.486 170.96l-10.046 2.692s-.047-1.907-2.888-6.756c-2.841-4.848-9.55-22.983-10.542-30.331-.99-7.347-8.042-17.012-8.042-17.012s-.464-.949-1.034-2.203c-.528-1.159-1.141-2.574-1.562-3.744-.877-2.435-4.78-5.893-4.78-5.893-7.148-3.964-8.557-8.713-8.639-11.679a8.331 8.331 0 01.382-2.873l1.832-2.4 3.465-4.548 11.719-12.56 7.13 1.469.431 18.285c5.423 7.098 8.77 23.208 9.886 29.304a21.19 21.19 0 001.137 3.922c1.879 4.831 2.075 13.151 2.075 13.151s3.565 12.749 3.144 17.672c-.42 4.923 6.332 13.504 6.332 13.504z" fill="#094067"/><path d="M59.44 69.094s5.554 3.967 7.757 4.734c2.203.766 7.451 3.647 7.451 3.647s15.43 5.918 10.053 9.593c-5.375 3.676-12.391-4.634-12.391-4.634s-3.056-2.114-5.523-2.603c-2.467-.488-7.718-3.344-7.718-3.344l.37-7.393z" fill="#FFB8B8"/><path opacity=".1" d="M54.285 23.892a16.549 16.549 0 00-3.408 3.177c-.65.134-1.31.21-1.972.228-3.002.071-4.556-3.209-6.538-5.173.624-1.982-.435-1.215-.435-1.215s19.607-2.1 12.353 2.983z" fill="#000"/><path d="M48.645 26.752c5.879 0 10.645-4.766 10.645-10.645 0-5.88-4.766-10.646-10.645-10.646C42.765 5.461 38 10.227 38 16.107c0 5.879 4.766 10.645 10.645 10.645z" fill="#FFB8B8"/><path opacity=".1" d="M47.486 36.612l-5.28-4.516-6.791 1.522a21.228 21.228 0 003.64-4.578h.046a9.115 9.115 0 016.592 1.262c.873.545 1.713 1.14 2.517 1.783a13.745 13.745 0 00-.724 4.527zM58.488 75.122l.096 4.082c-.82-.824-4.916-4.71-3.8.92 1.24 6.253-6.025 10.79-6.025 10.79a27.27 27.27 0 01-1.69 2.1c-5.761 6.386-10.866 4.44-13.108 3.02a7.811 7.811 0 01-1.213-.923 1.93 1.93 0 01-.356-1.034 8.558 8.558 0 011.07-2.531l2.691-.784 3.465-4.55 11.718-12.559 7.152 1.469z" fill="#000"/><path d="M58.712 78.805s-5.18-5.476-3.921.773c1.258 6.25-6.028 10.791-6.028 10.791-8.464 11.665-16.011 4.196-16.011 4.196s-1.96-2.139 3.037-10.174c3.83-6.15 1.184-15.351-.267-19.326a50.759 50.759 0 01-1.587-5.244l-.356-1.426-.816-3.337a35.849 35.849 0 01-.892-11.918c.244-2.67.802-5.303 1.662-7.843.549-1.626 1.165-3.023 1.828-3.857a6.193 6.193 0 013.744-2.14 9.102 9.102 0 016.592 1.259 24.922 24.922 0 013.921 2.998c2.795 2.663-.474 3.013-.474 3.013-2.118 2.78 3.733 7.843 3.733 7.843s8.623 6.894 6.556 11.857c-2.068 4.962-.118 6.556 1.126 13.08 1.244 6.524-1.847 9.455-1.847 9.455z" fill="#FAFAFA"/><path opacity=".1" d="M47.939.595c-1.633.292-3.109 1.184-4.738 1.487-1.697.31-3.437-.029-5.159 0A12.435 12.435 0 0031.53 4.01a3.358 3.358 0 00-1.212 1.152 4.425 4.425 0 00-.356 1.782c-.482 6.371-5.024 11.669-9.85 15.854a6.548 6.548 0 00-1.637 1.783c-.492.937-.478 2.042-.485 3.101-.075 10.556-3.757 21.643-12.12 28.078 2.826 1.865 7.13.856 8.83-2.071a26.047 26.047 0 01-3.619 9.073c3.73-.078 6.478-3.376 8.688-6.381a17.779 17.779 0 01-2.495 10.666c4.99-.431 10.089-1.508 14.124-4.46 1.85-1.35 3.526-3.319 3.487-5.608-.022-1.308-.606-2.534-1.023-3.778-1.088-3.237-.827-7.32 1.868-9.42.508-.33.985-.706 1.426-1.122.617-.692.834-1.647.959-2.563a18.244 18.244 0 00-.332-6.71 4.938 4.938 0 01-.217-1.426c.06-1.009.82-1.854 1.682-2.374.863-.52 1.847-.806 2.763-1.237a9.486 9.486 0 005.305-8.378c0-1.023-.132-2.164.514-2.952.958-1.17 2.955-.77 4.103-1.754 1.087-.93.966-2.663 1.725-3.879.624-.998 1.783-1.529 2.628-2.331 4.235-3.929-4.92-9.07-8.346-8.46z" fill="#000"/><path opacity=".1" d="M47.04 40.923v.067l-6.723 9.116-4.125 5.594s-1.12 1.07-2.624 2.677l-.816-3.337a35.852 35.852 0 01-.891-11.918c1.558-3.108 3.233-5.194 4.802-6.591a6.242 6.242 0 0110.378 4.392z" fill="#000"/><path d="M47.91.05c-1.632.292-3.108 1.183-4.737 1.483-1.694.313-3.434-.029-5.16 0-2.302.025-4.553.689-6.502 1.918A3.359 3.359 0 0030.3 4.602a4.429 4.429 0 00-.356 1.783c-.478 6.37-5.023 11.668-9.85 15.853a6.607 6.607 0 00-1.637 1.783c-.488.934-.477 2.043-.485 3.101-.07 10.556-3.757 21.644-12.12 28.078 2.823 1.865 7.13.853 8.826-2.07a26.025 26.025 0 01-3.611 9.097c3.729-.078 6.478-3.38 8.688-6.385.308 3.73-.568 7.46-2.503 10.663 4.991-.431 10.09-1.508 14.128-4.46 1.847-1.35 3.526-3.319 3.487-5.607-.025-1.309-.606-2.535-1.023-3.78-1.091-3.236-.83-7.318 1.864-9.418.508-.332.986-.71 1.426-1.127.617-.688.835-1.643.96-2.56.302-2.239.188-4.514-.336-6.712a4.888 4.888 0 01-.214-1.426c.061-1.01.817-1.854 1.68-2.375.862-.52 1.85-.805 2.762-1.237a9.483 9.483 0 005.32-8.356c0-1.023-.136-2.164.513-2.956.959-1.165 2.952-.766 4.1-1.75 1.09-.93.966-2.663 1.725-3.879.624-.998 1.782-1.53 2.631-2.331C60.506 4.577 51.351-.56 47.91.05z" fill="#343344"/><path d="M46.484 40.391v.068l-6.727 9.127-4.121 5.597s-7.747 7.28-9.797 13.062a38.175 38.175 0 01-2.973 6.217 109.609 109.609 0 00-5.55 10.788 10.446 10.446 0 01-1.13 2.057 8.33 8.33 0 00-1.548 3.861s-2.26 8.517-8.225 10.292C.45 103.236 3.74 92.241 5.087 91.389c.756-.478 2.514-2.27 3.922-3.754a14.795 14.795 0 002.977-4.656l1.3-3.248S19.49 64.844 20.564 64c.313-.27.578-.59.784-.948a174.14 174.14 0 012.631-4.164c1.18-1.804 3.048-5.401 5.726-12.574.189-.506.378-.988.574-1.455 1.832-4.392 3.921-7.13 5.84-8.848a6.242 6.242 0 0110.366 4.381z" fill="#FFB8B8"/><path d="M46.63 40.36v.07l-6.848 9.295-9.665-4.813c1.865-4.474 3.99-7.27 5.947-9.013a6.356 6.356 0 0110.567 4.46z" fill="#FAFAFA"/><path opacity=".1" d="M38.153 33.136s7.262 3.116 10.827 3.305l-10.827-3.305z" fill="#000"/><path opacity=".1" d="M98.316 178.483c.325 2.178-9.436 5.137-9.436 5.137l-10.11-.31.028 1.091-7.922-.086-.05-2.185c0-.04-.025-.079-.035-.118l18.181.378 9.234-4.396c.053.157.082.317.11.489zM26.848 183.559c-.21.276-.463.516-.748.713l-10.368.243-6.951-5.298L8 180.875c-1.362.028-8-3.636-8-3.636l.774-1.929c0-.114.025-.228.039-.357l8.089 3.565 6.945 5.024 11.001.017z" fill="#343344"/><path opacity=".1" d="M33.928 93.036s3.9-8.282 7.922-10.845l-7.922 10.845zM49.443 56.088s2.286 4.257 9.209 2.624l-9.209-2.624z" fill="#000"/></svg>
